X: 44
T: Mo Nighean Donn, Gr\`adh Mo Chridhe
R:Air
C:Phil Cunningham
M:3/4
L:1/4
K:AMin
E2  G | A2  c| e/(g/g2)  | e3| e2  G| A3  | A3  |
E2  G| A2  c| e/(g/g2)  | e3| g3/ e/  d|   e3|
  e3| a2 g| e2  A| c2  d| e3 | d2  e| d3/ c/ A|
 G3 | E2  G| A2  c| e(g/g2)| d3 | e2  G| A3  |  A3 :|
|: e3/ d/ e| g3|  a3 | d3/ e/ f|  e3|  A3|
e3/ d/ e|  g3|  a3 | d3/ e/ f| e3| e3/ d/ c|
A3| d3 | B3/A/ G|  E3|  A3| E2  G |
A2  c| e(g/g2)| d3|  e2  G|A3 | A3 :|

%%sep 2 1 500

